X:3187
T:Smöd Eriks bröllopspolska
M:3/4
L:1/8
K:D
F|:A2 A>A B>c|(3cBc d2 F>G|A2 A/B/A/G/ E>C|D>E FG A>A|A2 A>A B>c|
(3cBc d2 F>G|A2 A/B/A/G/ E>C|1D2D2- DF:|2D2D2-Dg|:f>e 2f2d2-|de/f/ g2e2-|
e>f g>f ed|c>B A/B/A/G/ A2-|A>e f2 d2-|de/f/ g2e2-|e>f g>f ed|1cB/c/ d3 g:|2cB/c/d4|
(:musicend:)
(:music:)
